src/svg/uf1c6-file-archive-o,file-zip-o.svg

<!-- Generated by IcoMoon.io -->
<svg version="1.1" xmlns="http://www.w3.org/2000/svg" width="27" height="32" viewBox="0 0 27 32">
<path d="M11.429 6.857v-2.286h-2.286v2.286h2.286zM13.714 9.143v-2.286h-2.286v2.286h2.286zM11.429 11.429v-2.286h-2.286v2.286h2.286zM13.714 13.714v-2.286h-2.286v2.286h2.286zM26.214 6.786c0.661 0.661 1.214 1.982 1.214 2.929v20.571c0 0.946-0.768 1.714-1.714 1.714h-24c-0.946 0-1.714-0.768-1.714-1.714v-28.571c0-0.946 0.768-1.714 1.714-1.714h16c0.946 0 2.268 0.554 2.929 1.214zM18.286 2.429v6.714h6.714c-0.107-0.304-0.268-0.607-0.393-0.732l-5.589-5.589c-0.125-0.125-0.429-0.286-0.732-0.393zM25.143 29.714v-18.286h-7.429c-0.946 0-1.714-0.768-1.714-1.714v-7.429h-2.286v2.286h-2.286v-2.286h-9.143v27.429h22.857zM13.946 16.839c1.518 5.125 1.911 6.232 1.911 6.232 0.089 0.304 0.143 0.607 0.143 0.929 0 1.982-1.929 3.429-4.571 3.429s-4.571-1.446-4.571-3.429c0-0.321 0.054-0.625 0.143-0.929 0 0 0.375-1.107 2.143-7.071v-2.286h2.286v2.286h1.411c0.518 0 0.964 0.339 1.107 0.839zM11.429 25.143c1.268 0 2.286-0.518 2.286-1.143s-1.018-1.143-2.286-1.143-2.286 0.518-2.286 1.143 1.018 1.143 2.286 1.143z"></path>
</svg>

<svg xmlns="http://www.w3.org/2000/svg" width="27" height="32"><path d="M11.429 6.857V4.571H9.143v2.286h2.286zm2.285 2.286V6.857h-2.286v2.286h2.286zm-2.285 2.286V9.143H9.143v2.286h2.286zm2.285 2.285v-2.286h-2.286v2.286h2.286zm12.5-6.928c.661.661 1.214 1.982 1.214 2.929v20.571c0 .946-.768 1.714-1.714 1.714h-24A1.715 1.715 0 0 1 0 30.286V1.715C0 .769.768.001 1.714.001h16c.946 0 2.268.554 2.929 1.214zm-7.928-4.357v6.714H25c-.107-.304-.268-.607-.393-.732l-5.589-5.589c-.125-.125-.429-.286-.732-.393zm6.857 27.285V11.428h-7.429A1.715 1.715 0 0 1 16 9.714V2.285h-2.286v2.286h-2.286V2.285H2.285v27.429h22.857zM13.946 16.839c1.518 5.125 1.911 6.232 1.911 6.232.089.304.143.607.143.929 0 1.982-1.929 3.429-4.571 3.429S6.858 25.983 6.858 24c0-.321.054-.625.143-.929 0 0 .375-1.107 2.143-7.071v-2.286h2.286V16h1.411c.518 0 .964.339 1.107.839zm-2.517 8.304c1.268 0 2.286-.518 2.286-1.143s-1.018-1.143-2.286-1.143-2.286.518-2.286 1.143 1.018 1.143 2.286 1.143z"/></svg>
